assets/icons/userinfo-not.svg

<svg width="24" height="24" viewBox="0 0 24 24" fill="none" xmlns="http://www.w3.org/2000/svg">
<circle cx="12" cy="7" r="4.25" stroke="#333333" stroke-width="1.5"/>
<path d="M14 8C14 8.13132 13.9483 8.26136 13.8478 8.38268C13.7472 8.50401 13.5999 8.61425 13.4142 8.70711C13.2285 8.79997 13.008 8.87362 12.7654 8.92388C12.5227 8.97413 12.2626 9 12 9C11.7374 9 11.4773 8.97413 11.2346 8.92388C10.992 8.87362 10.7715 8.79997 10.5858 8.70711C10.4001 8.61425 10.2528 8.50401 10.1522 8.38268C10.0517 8.26136 10 8.13132 10 8" stroke="#333333" stroke-width="1.25" stroke-linecap="round"/>
<path d="M2.75 20.5789C2.75 16.8074 5.80742 13.75 9.57895 13.75H14.4211C18.1926 13.75 21.25 16.8074 21.25 20.5789C21.25 20.9496 20.9496 21.25 20.5789 21.25H3.42105C3.05044 21.25 2.75 20.9496 2.75 20.5789Z" stroke="#333333" stroke-width="1.5"/>
</svg>

<svg xmlns="http://www.w3.org/2000/svg" width="24" height="24" fill="none" data-c="1"><circle cx="12" cy="7" r="4.25" stroke="#333" stroke-width="1.5"/><path stroke="#333" stroke-linecap="round" stroke-width="1.25" d="M14 8a.6.6 0 0 1-.152.383c-.1.121-.248.231-.434.324a2.7 2.7 0 0 1-.649.217c-.242.05-.502.076-.765.076s-.523-.026-.765-.076a2.7 2.7 0 0 1-.65-.217 1.3 1.3 0 0 1-.433-.324A.6.6 0 0 1 10 8"/><path stroke="#333" stroke-width="1.5" d="M2.75 20.579a6.83 6.83 0 0 1 6.829-6.829h4.842a6.83 6.83 0 0 1 6.829 6.829c0 .37-.3.671-.671.671H3.42c-.37 0-.671-.3-.671-.671Z"/></svg>
